X: 2778
T: Bannocks Of Bere Meal
R: waltz
M: 3/4
K: Fmajor
F2 F2 A2|G2 G2 (AG)|F2 (FG) (AB)|(c2 e2) f2|
F2 F2 A2|G2 G2 (AG)|F2 (FG) (AB)|(c2 e2) f2||
f2 c2 A2|G2 g2 e2|f2 c2 A2|(f3 g) a2|
d2 (fd) cA|c2 GB AG|F2 FG AB|(c2 e2) f2||
F2 F2 A2|G2 G2 (AG)|F2 (FG) (AB)|(c2e2) f2|
F2 F2 A2|G2 G2 (AG)|F2 (FG) (AB)|(c2 e2) f2||

